Sources/FrostedUI/Resources/Icons.xcassets/home20.imageset/home-20.svg

<svg width="20" height="20" viewBox="0 0 20 20" fill="none" xmlns="http://www.w3.org/2000/svg" data-fui-icon="true">
  <path
    d="M10 1C10.7375 1 11.4523 1.25436 12.0244 1.71973L18.1289 6.68457C18.6798 7.13269 19 7.80548 19 8.51562V17.4502C18.9999 18.3061 18.3061 18.9999 17.4502 19H14.0498C13.1939 18.9999 12.5001 18.3061 12.5 17.4502V14.5C12.5 13.1193 11.3807 12 10 12C8.61929 12 7.50001 13.1193 7.5 14.5V17.4502C7.4999 18.3061 6.80609 18.9999 5.9502 19H2.5498C1.69391 18.9999 1.0001 18.3061 1 17.4502V8.51562C1.00005 7.80548 1.32018 7.13269 1.87109 6.68457L7.97559 1.71973C8.54774 1.25436 9.26249 1 10 1ZM10 2.5C9.60733 2.5 9.22653 2.63509 8.92188 2.88281L2.81738 7.84863C2.61665 8.01191 2.50005 8.25688 2.5 8.51562V17.4502C2.50009 17.4777 2.52234 17.4999 2.5498 17.5H5.9502C5.97766 17.4999 5.99991 17.4777 6 17.4502V14.5C6.00001 12.2909 7.79087 10.5 10 10.5C12.2091 10.5 14 12.2909 14 14.5V17.4502C14.0001 17.4777 14.0223 17.4999 14.0498 17.5H17.4502C17.4777 17.4999 17.4999 17.4777 17.5 17.4502V8.51562C17.5 8.25688 17.3833 8.01191 17.1826 7.84863L11.0781 2.88281C10.7735 2.63509 10.3927 2.5 10 2.5Z"
    fill="currentColor"
  />
</svg>

<svg xmlns="http://www.w3.org/2000/svg" width="20" height="20" fill="none" data-fui-icon="true" viewBox="0 0 20 20"><path fill="currentColor" d="M10 1c.738 0 1.452.254 2.024.72l6.105 4.965c.55.448.871 1.12.871 1.83v8.935A1.55 1.55 0 0 1 17.45 19h-3.4a1.55 1.55 0 0 1-1.55-1.55V14.5a2.5 2.5 0 0 0-5 0v2.95A1.55 1.55 0 0 1 5.95 19h-3.4A1.55 1.55 0 0 1 1 17.45V8.516c0-.71.32-1.383.871-1.831L7.976 1.72A3.2 3.2 0 0 1 10 1m0 1.5c-.393 0-.773.135-1.078.383L2.817 7.849a.86.86 0 0 0-.317.667v8.934c0 .028.022.05.05.05h3.4a.05.05 0 0 0 .05-.05V14.5a4 4 0 0 1 8 0v2.95c0 .028.022.05.05.05h3.4a.05.05 0 0 0 .05-.05V8.516a.86.86 0 0 0-.317-.667l-6.105-4.966A1.7 1.7 0 0 0 10 2.5"/></svg>
